public/library/usdg-text-light.svg

<svg xmlns="http://www.w3.org/2000/svg" width="2004" height="543" fill="none" viewBox="0 0 2004 543"><path fill="#0c0c0c" fill-rule="evenodd" d="M541.77 291.659c-10.486 140.147-127.517 250.595-270.346 250.595-149.73 0-271.11-121.38-271.11-271.11S121.693.034 271.423.034c142.595 0 259.478 110.087 270.294 249.908H412.1c28.295-62.544 30.007-119.369-.936-145.333-45.696-38.343-145.302 5.134-222.478 97.108s-102.696 197.618-57 235.961 145.302-5.134 222.478-97.108c13.452-16.031 25.334-32.478 35.544-48.911z" clip-rule="evenodd"/><path fill="#0c0c0c" d="M291.787 291.659h108.414l-41.865 54.833-66.549-26.719zM1436.33 292.114h27.19V385.9l45.76-50.065h33.3l-44.86 46.214 48.48 72.717h-31.49l-35.56-53.689-15.63 15.858v37.831h-27.19zM1412.13 335.154c1.13 0 2.26.227 3.62.227 1.13 0 2.49.226 4.08.226v27.185c-1.81-.227-3.63-.454-4.99-.454-1.58 0-3.17-.226-4.98-.226-9.06 0-16.54 2.945-21.97 8.382-5.67 5.437-8.39 12.686-8.39 21.747v62.524h-27.18V335.834h27.18v17.67c2.72-5.437 6.8-9.968 12.69-13.366 5.89-3.171 12.46-4.984 19.94-4.984M1319.82 351.683c4.99 5.437 8.61 12.007 11.33 19.482 2.49 7.476 3.85 15.631 3.85 24.24 0 8.834-1.36 16.99-3.85 24.465-2.72 7.476-6.34 13.819-11.33 19.256-5.43 5.89-11.55 10.42-18.8 13.592-7.25 3.171-14.95 4.53-23.33 4.53-8.61 0-16.31-1.359-23.56-4.53s-13.37-7.702-18.58-13.592c-4.98-5.437-8.83-11.78-11.32-19.256-2.72-7.475-3.85-15.631-3.85-24.465 0-8.609 1.13-16.764 3.85-24.24 2.49-7.475 6.34-14.045 11.32-19.482 5.21-5.89 11.33-10.194 18.58-13.365 7.25-3.172 14.95-4.757 23.56-4.757 8.38 0 16.08 1.585 23.33 4.757s13.37 7.475 18.8 13.365m-42.13 4.758c-9.29 0-16.54 3.624-21.97 10.42-5.44 7.023-7.93 16.537-7.93 28.544 0 12.232 2.49 21.747 7.93 28.543 5.43 7.022 12.68 10.421 21.97 10.421 9.06 0 16.31-3.399 21.75-10.421 5.43-6.796 8.15-16.311 8.15-28.543 0-12.007-2.72-21.521-8.15-28.544-5.44-6.796-12.69-10.42-21.75-10.42M1103.65 414.67l21.07-78.834h22.42l21.3 78.834 21.07-78.834h26.95l-35.79 118.931h-23.56l-21.74-77.928-21.75 77.928h-23.56l-35.79-118.931h27.86zM1024.16 456.126c-12.69 0-21.52-2.265-26.958-7.249-5.437-4.983-7.929-12.912-7.929-24.012v-65.922h-16.537v-23.106h16.537V300.95H1016v34.887h24.92v23.106H1016v61.618c0 4.304.91 7.249 3.18 9.061 2.03 1.812 6.34 2.718 12.68 2.718h4.99c1.35 0 3.39-.226 6.11-.679v22.88c-2.72.453-5.89.906-9.06 1.132-3.4.454-6.57.453-9.74.453M912.461 457.258c-8.609 0-16.311-1.359-23.56-4.53s-13.592-7.476-18.802-13.366c-4.984-5.437-8.835-12.006-11.554-19.482s-3.851-15.631-3.851-24.466c0-8.155 1.133-16.084 3.851-23.559s6.343-14.045 11.327-19.709c5.21-5.89 11.327-10.647 18.576-13.818 7.023-3.172 14.725-4.758 22.88-4.758 16.084 0 28.996 5.437 38.511 16.311 9.514 10.873 14.272 24.919 14.272 42.362v9.061h-83.365c.906 10.194 4.304 18.123 9.967 24.013q8.496 8.835 21.748 8.835c6.796 0 12.459-1.586 17.443-4.984s8.382-8.155 10.194-14.045l23.333 8.835c-4.304 10.42-10.874 18.576-19.935 24.465-9.061 5.89-19.255 8.835-31.035 8.835m-1.36-100.808c-7.249 0-13.592 2.266-18.575 6.343-4.984 4.304-8.609 10.421-10.421 18.123H936.7c-.227-7.249-2.492-13.139-7.023-17.67-4.53-4.53-10.873-6.796-18.576-6.796M809.372 292.114h27.864v162.652h-25.372l-80.647-119.384v119.384h-27.863V292.114h29.902l76.116 113.947zM1978.11 130.293c1.13 0 2.27.226 3.63.226 1.13 0 2.49.227 4.07.227v27.184c-1.81-.226-3.62-.453-4.98-.453-1.59 0-3.17-.226-4.98-.226-9.07 0-16.54 2.945-21.98 8.381-5.66 5.437-8.38 12.686-8.38 21.748v62.523h-27.18v-118.93h27.18v17.669c2.72-5.437 6.8-9.967 12.69-13.365 5.89-3.172 12.46-4.984 19.93-4.984M1864.79 238.578c-3.85 4.304-8.84 7.703-14.95 9.968-6.12 2.265-12.92 3.398-20.39 3.398-11.78 0-21.3-3.172-28.77-9.741-7.7-6.57-11.33-14.951-11.33-25.372 0-9.741 3.17-17.67 9.74-23.786 6.35-6.117 16.54-10.647 30.13-13.592l32.85-6.796v-2.039c0-5.89-1.81-10.421-5.21-13.592s-8.38-4.757-15.18-4.757c-6.34 0-11.32 1.585-14.95 4.304-3.62 2.718-6.34 7.249-7.93 13.139l-25.6-5.89c3.18-10.647 9.07-19.256 17.9-25.599s19.48-9.514 31.71-9.514c14.73 0 26.06 3.625 33.98 10.647 7.71 7.023 11.78 17.217 11.78 30.356v51.197c0 3.398.68 5.663 2.27 6.796 1.59 1.359 4.3 1.585 8.16 1.132v21.068c-9.75 1.133-17.45.68-22.88-1.133-5.44-1.812-9.29-5.21-11.33-10.194m-31.26-8.381c8.15 0 14.95-2.039 20.39-6.117 5.43-4.078 8.15-9.288 8.15-16.084v-14.498l-25.6 5.437c-7.47 1.812-12.68 3.851-15.63 6.343-3.17 2.718-4.53 6.116-4.53 10.42 0 4.531 1.36 8.156 4.53 10.647 3.17 2.719 7.25 3.852 12.69 3.852M1742.21 87.253h27.18v162.652h-27.18zM1686.46 87.253h27.19v162.652h-27.19zM1650.12 146.832c4.99 5.437 8.61 12.006 11.33 19.482 2.49 7.475 3.85 15.631 3.85 24.239 0 8.835-1.36 16.99-3.85 24.466-2.72 7.475-6.34 13.818-11.33 19.255-5.43 5.89-11.55 10.421-18.8 13.592s-14.95 4.531-23.33 4.531c-8.61 0-16.31-1.359-23.56-4.531s-13.37-7.702-18.58-13.592c-4.98-5.437-8.83-11.78-11.32-19.255-2.72-7.476-3.86-15.631-3.86-24.466 0-8.608 1.14-16.764 3.86-24.239 2.49-7.476 6.34-14.045 11.32-19.482 5.21-5.89 11.33-10.194 18.58-13.366s14.95-4.757 23.56-4.757c8.38 0 16.08 1.586 23.33 4.757 7.25 3.172 13.37 7.476 18.8 13.366m-42.13 4.757c-9.29 0-16.54 3.625-21.98 10.421-5.43 7.022-7.92 16.537-7.92 28.543 0 12.233 2.49 21.747 7.92 28.543 5.44 7.023 12.69 10.421 21.98 10.421 9.06 0 16.31-3.398 21.75-10.421 5.43-6.796 8.15-16.31 8.15-28.543 0-12.006-2.72-21.521-8.15-28.543-5.44-6.796-12.69-10.421-21.75-10.421M1454.81 249.905h-54.37V87.253h54.37c12.23 0 23.56 2.039 33.76 5.663 9.96 3.625 18.57 9.062 25.82 16.311s12.69 15.857 16.54 25.825c3.62 10.194 5.66 21.294 5.66 33.527s-2.04 23.56-5.66 33.527c-3.85 10.194-9.29 18.802-16.54 25.825-7.25 7.249-15.86 12.912-25.82 16.537-10.2 3.625-21.53 5.437-33.76 5.437m-26.05-137.733v112.814h26.05c16.31 0 29.45-4.984 38.97-15.178 9.51-9.967 14.27-23.786 14.27-41.229s-4.76-31.262-14.27-41.229c-9.52-9.968-22.66-15.178-39.19-15.178zM1297.17 87.253h27.19v162.652h-27.19zM1244.04 238.578c-3.85 4.304-8.84 7.703-14.95 9.968-6.12 2.265-12.92 3.398-20.39 3.398-11.78 0-21.3-3.172-28.77-9.741-7.7-6.57-11.33-14.951-11.33-25.372 0-9.741 3.17-17.67 9.74-23.786 6.35-6.117 16.54-10.647 30.13-13.592l32.85-6.796v-2.039c0-5.89-1.81-10.421-5.21-13.592s-8.38-4.757-15.18-4.757c-6.34 0-11.33 1.585-14.95 4.304-3.62 2.718-6.34 7.249-7.93 13.139l-25.6-5.89c3.17-10.647 9.06-19.256 17.9-25.599 8.83-6.343 19.48-9.514 31.71-9.514 14.73 0 26.06 3.625 33.98 10.647 7.71 7.023 11.78 17.217 11.78 30.356v51.197c0 3.398.68 5.663 2.27 6.796 1.58 1.359 4.3 1.585 8.15 1.132v21.068c-9.74 1.133-17.44.68-22.88-1.133-5.43-1.812-9.28-5.21-11.32-10.194m-31.26-8.381c8.15 0 14.95-2.039 20.38-6.117 5.44-4.078 8.16-9.288 8.16-16.084v-14.498l-25.6 5.437c-7.47 1.812-12.69 3.851-15.63 6.343-3.17 2.718-4.53 6.116-4.53 10.42 0 4.531 1.36 8.156 4.53 10.647 3.17 2.719 7.25 3.852 12.69 3.852M1141.73 233.368c-4.76 6.343-10.42 11.1-17.22 14.272-6.79 3.171-14.04 4.757-21.97 4.757-7.25 0-13.59-1.133-19.48-3.851-5.89-2.492-10.65-6.117-14.73-11.101v12.46h-27.18V87.253h27.18v56.407c4.08-4.757 8.84-8.382 14.73-11.1 5.89-2.492 12.23-3.851 19.48-3.851 7.93 0 15.18 1.812 21.97 4.984 6.8 3.171 12.46 7.928 17.22 14.045a68.3 68.3 0 0 1 9.74 19.482c2.26 7.249 3.4 15.178 3.4 23.333 0 8.382-1.14 16.31-3.4 23.559-2.27 7.249-5.66 13.819-9.74 19.256m-44.63-80.873c-9.06 0-16.08 3.171-21.52 9.514s-7.93 14.725-7.93 25.146v7.022q0 15.631 8.16 25.146c5.43 6.343 12.46 9.288 21.29 9.288 9.52 0 16.76-3.398 22.2-10.194q8.16-10.194 8.16-27.864t-8.16-27.864c-5.44-6.796-12.68-10.194-22.2-10.194M1008.41 146.832c4.98 5.437 8.61 12.006 11.33 19.482 2.49 7.475 3.85 15.631 3.85 24.239 0 8.835-1.36 16.99-3.85 24.466-2.72 7.475-6.35 13.818-11.33 19.255-5.44 5.89-11.554 10.421-18.803 13.592s-14.951 4.531-23.333 4.531c-8.608 0-16.31-1.359-23.559-4.531s-13.366-7.702-18.576-13.592c-4.984-5.437-8.835-11.78-11.327-19.255-2.718-7.476-3.851-15.631-3.851-24.466 0-8.608 1.133-16.764 3.851-24.239 2.492-7.476 6.343-14.045 11.327-19.482 5.21-5.89 11.326-10.194 18.576-13.366 7.249-3.171 14.951-4.757 23.559-4.757 8.382 0 16.084 1.586 23.333 4.757 7.249 3.172 13.363 7.476 18.803 13.366m-42.136 4.757c-9.288 0-16.537 3.625-21.974 10.421-5.436 7.022-7.928 16.537-7.928 28.543 0 12.233 2.492 21.747 7.928 28.543 5.437 7.023 12.686 10.421 21.974 10.421 9.062 0 16.311-3.398 21.748-10.421q8.154-10.194 8.155-28.543 0-18.01-8.155-28.543c-5.437-6.796-12.686-10.421-21.748-10.421M862.954 87.253h27.184v162.652h-27.184zM838.595 249.905H812.09v-16.764c-3.624 5.89-9.288 10.647-16.99 14.045-7.929 3.625-16.764 5.21-26.731 5.21-10.874 0-21.068-2.038-30.356-6.569-9.288-4.304-17.216-10.647-24.012-18.802q-9.515-10.875-14.272-25.825-4.757-14.952-4.757-31.942c0-11.327 1.585-22.2 4.983-32.394 3.398-9.968 8.382-19.029 14.725-26.731 6.796-8.156 15.178-14.272 24.692-18.803 9.515-4.304 19.709-6.57 30.809-6.57 15.858 0 29.676 4.078 41.003 12.234s19.482 19.482 24.692 34.433l-27.637 9.288q-3.738-14.272-13.592-22.427c-6.57-5.21-14.725-7.929-24.239-7.929-13.819 0-24.919 5.437-33.527 16.311q-12.913 16.31-12.913 42.135c0 17.67 4.304 31.715 12.913 42.589s19.935 16.084 33.98 16.084c11.327 0 20.841-3.625 28.09-10.874s11.327-16.99 11.78-28.996h-42.815v-25.372h70.679z"/></svg>

<svg width="2004" height="543" viewBox="0 0 2004 543" fill="none" xmlns="http://www.w3.org/2000/svg">
<path fill-rule="evenodd" clip-rule="evenodd" d="M541.77 291.659C531.284 431.806 414.253 542.254 271.424 542.254C121.694 542.254 0.313477 420.874 0.313477 271.144C0.313477 121.414 121.694 0.0332031 271.424 0.0332031C414.019 0.0332031 530.902 110.121 541.718 249.942H412.1C440.395 187.398 442.107 130.573 411.164 104.609C365.468 66.2659 265.862 109.743 188.686 201.717C111.51 293.692 85.9902 399.335 131.686 437.678C177.381 476.021 276.988 432.544 354.164 340.57C367.616 324.539 379.498 308.092 389.708 291.659H541.77Z" fill="#0C0C0C"/>
<path d="M291.787 291.659H400.201L358.336 346.492L291.787 319.773V291.659Z" fill="#0C0C0C"/>
<path d="M1436.33 292.114H1463.52V385.9L1509.28 335.835H1542.58L1497.72 382.049L1546.2 454.766H1514.71L1479.15 401.077L1463.52 416.935V454.766H1436.33V292.114Z" fill="#0C0C0C"/>
<path d="M1412.13 335.154C1413.26 335.154 1414.39 335.381 1415.75 335.381C1416.88 335.381 1418.24 335.607 1419.83 335.607V362.792C1418.02 362.565 1416.2 362.338 1414.84 362.338C1413.26 362.338 1411.67 362.112 1409.86 362.112C1400.8 362.112 1393.32 365.057 1387.89 370.494C1382.22 375.931 1379.5 383.18 1379.5 392.241V454.765H1352.32V335.834H1379.5V353.504C1382.22 348.067 1386.3 343.536 1392.19 340.138C1398.08 336.967 1404.65 335.154 1412.13 335.154Z" fill="#0C0C0C"/>
<path d="M1319.82 351.683C1324.81 357.12 1328.43 363.69 1331.15 371.165C1333.64 378.641 1335 386.796 1335 395.405C1335 404.239 1333.64 412.395 1331.15 419.87C1328.43 427.346 1324.81 433.689 1319.82 439.126C1314.39 445.016 1308.27 449.546 1301.02 452.718C1293.77 455.889 1286.07 457.248 1277.69 457.248C1269.08 457.248 1261.38 455.889 1254.13 452.718C1246.88 449.546 1240.76 445.016 1235.55 439.126C1230.57 433.689 1226.72 427.346 1224.23 419.87C1221.51 412.395 1220.38 404.239 1220.38 395.405C1220.38 386.796 1221.51 378.641 1224.23 371.165C1226.72 363.69 1230.57 357.12 1235.55 351.683C1240.76 345.793 1246.88 341.489 1254.13 338.318C1261.38 335.146 1269.08 333.561 1277.69 333.561C1286.07 333.561 1293.77 335.146 1301.02 338.318C1308.27 341.489 1314.39 345.793 1319.82 351.683ZM1277.69 356.441C1268.4 356.441 1261.15 360.065 1255.72 366.861C1250.28 373.884 1247.79 383.398 1247.79 395.405C1247.79 407.637 1250.28 417.152 1255.72 423.948C1261.15 430.97 1268.4 434.369 1277.69 434.369C1286.75 434.369 1294 430.97 1299.44 423.948C1304.87 417.152 1307.59 407.637 1307.59 395.405C1307.59 383.398 1304.87 373.884 1299.44 366.861C1294 360.065 1286.75 356.441 1277.69 356.441Z" fill="#0C0C0C"/>
<path d="M1103.65 414.67L1124.72 335.836H1147.14L1168.44 414.67L1189.51 335.836H1216.46L1180.67 454.767H1157.11L1135.37 376.839L1113.62 454.767H1090.06L1054.27 335.836H1082.13L1103.65 414.67Z" fill="#0C0C0C"/>
<path d="M1024.16 456.126C1011.47 456.126 1002.64 453.861 997.202 448.877C991.765 443.894 989.273 435.965 989.273 424.865V358.943H972.736V335.837H989.273V300.95H1016V335.837H1040.92V358.943H1016V420.561C1016 424.865 1016.91 427.81 1019.18 429.622C1021.21 431.434 1025.52 432.34 1031.86 432.34C1033.67 432.34 1035.26 432.34 1036.85 432.34C1038.2 432.34 1040.24 432.114 1042.96 431.661V454.541C1040.24 454.994 1037.07 455.447 1033.9 455.673C1030.5 456.127 1027.33 456.126 1024.16 456.126Z" fill="#0C0C0C"/>
<path d="M912.461 457.258C903.852 457.258 896.15 455.899 888.901 452.728C881.652 449.556 875.309 445.252 870.099 439.362C865.115 433.925 861.264 427.356 858.545 419.88C855.827 412.404 854.694 404.249 854.694 395.414C854.694 387.259 855.827 379.33 858.545 371.855C861.264 364.379 864.888 357.81 869.872 352.146C875.082 346.256 881.199 341.499 888.448 338.328C895.471 335.156 903.173 333.57 911.328 333.57C927.412 333.57 940.324 339.007 949.839 349.881C959.353 360.754 964.111 374.8 964.111 392.243V401.304H880.746C881.652 411.498 885.05 419.427 890.713 425.317C896.377 431.207 903.626 434.152 912.461 434.152C919.257 434.152 924.92 432.566 929.904 429.168C934.888 425.77 938.286 421.013 940.098 415.123L963.431 423.958C959.127 434.378 952.557 442.534 943.496 448.423C934.435 454.313 924.241 457.258 912.461 457.258ZM911.101 356.45C903.852 356.45 897.509 358.716 892.526 362.793C887.542 367.097 883.917 373.214 882.105 380.916H936.7C936.473 373.667 934.208 367.777 929.677 363.246C925.147 358.716 918.804 356.45 911.101 356.45Z" fill="#0C0C0C"/>
<path d="M809.372 292.114H837.236V454.766H811.864L731.217 335.382V454.766H703.354V292.114H733.256L809.372 406.061V292.114Z" fill="#0C0C0C"/>
<path d="M1978.11 130.293C1979.24 130.293 1980.38 130.519 1981.74 130.519C1982.87 130.519 1984.23 130.746 1985.81 130.746V157.93C1984 157.704 1982.19 157.477 1980.83 157.477C1979.24 157.477 1977.66 157.251 1975.85 157.251C1966.78 157.251 1959.31 160.196 1953.87 165.632C1948.21 171.069 1945.49 178.318 1945.49 187.38V249.903H1918.31V130.973H1945.49V148.642C1948.21 143.205 1952.29 138.675 1958.18 135.277C1964.07 132.105 1970.64 130.293 1978.11 130.293Z" fill="#0C0C0C"/>
<path d="M1864.79 238.578C1860.94 242.882 1855.95 246.281 1849.84 248.546C1843.72 250.811 1836.92 251.944 1829.45 251.944C1817.67 251.944 1808.15 248.772 1800.68 242.203C1792.98 235.633 1789.35 227.252 1789.35 216.831C1789.35 207.09 1792.52 199.161 1799.09 193.045C1805.44 186.928 1815.63 182.398 1829.22 179.453L1862.07 172.657V170.618C1862.07 164.728 1860.26 160.197 1856.86 157.026C1853.46 153.854 1848.48 152.269 1841.68 152.269C1835.34 152.269 1830.36 153.854 1826.73 156.573C1823.11 159.291 1820.39 163.822 1818.8 169.712L1793.2 163.822C1796.38 153.175 1802.27 144.566 1811.1 138.223C1819.93 131.88 1830.58 128.709 1842.81 128.709C1857.54 128.709 1868.87 132.334 1876.79 139.356C1884.5 146.379 1888.57 156.573 1888.57 169.712V220.909C1888.57 224.307 1889.25 226.572 1890.84 227.705C1892.43 229.064 1895.14 229.29 1899 228.837V249.905C1889.25 251.038 1881.55 250.585 1876.12 248.772C1870.68 246.96 1866.83 243.562 1864.79 238.578ZM1833.53 230.197C1841.68 230.197 1848.48 228.158 1853.92 224.08C1859.35 220.002 1862.07 214.792 1862.07 207.996V193.498L1836.47 198.935C1829 200.747 1823.79 202.786 1820.84 205.278C1817.67 207.996 1816.31 211.394 1816.31 215.698C1816.31 220.229 1817.67 223.854 1820.84 226.345C1824.01 229.064 1828.09 230.197 1833.53 230.197Z" fill="#0C0C0C"/>
<path d="M1742.21 87.2529H1769.39V249.905H1742.21V87.2529Z" fill="#0C0C0C"/>
<path d="M1686.46 87.2529H1713.65V249.905H1686.46V87.2529Z" fill="#0C0C0C"/>
<path d="M1650.12 146.832C1655.11 152.269 1658.73 158.838 1661.45 166.314C1663.94 173.789 1665.3 181.945 1665.3 190.553C1665.3 199.388 1663.94 207.543 1661.45 215.019C1658.73 222.494 1655.11 228.837 1650.12 234.274C1644.69 240.164 1638.57 244.695 1631.32 247.866C1624.07 251.038 1616.37 252.397 1607.99 252.397C1599.38 252.397 1591.68 251.038 1584.43 247.866C1577.18 244.695 1571.06 240.164 1565.85 234.274C1560.87 228.837 1557.02 222.494 1554.53 215.019C1551.81 207.543 1550.67 199.388 1550.67 190.553C1550.67 181.945 1551.81 173.789 1554.53 166.314C1557.02 158.838 1560.87 152.269 1565.85 146.832C1571.06 140.942 1577.18 136.638 1584.43 133.466C1591.68 130.295 1599.38 128.709 1607.99 128.709C1616.37 128.709 1624.07 130.295 1631.32 133.466C1638.57 136.638 1644.69 140.942 1650.12 146.832ZM1607.99 151.589C1598.7 151.589 1591.45 155.214 1586.01 162.01C1580.58 169.032 1578.09 178.547 1578.09 190.553C1578.09 202.786 1580.58 212.3 1586.01 219.096C1591.45 226.119 1598.7 229.517 1607.99 229.517C1617.05 229.517 1624.3 226.119 1629.74 219.096C1635.17 212.3 1637.89 202.786 1637.89 190.553C1637.89 178.547 1635.17 169.032 1629.74 162.01C1624.3 155.214 1617.05 151.589 1607.99 151.589Z" fill="#0C0C0C"/>
<path d="M1454.81 249.905H1400.44V87.2529H1454.81C1467.04 87.2529 1478.37 89.2917 1488.57 92.9163C1498.53 96.5409 1507.14 101.978 1514.39 109.227C1521.64 116.476 1527.08 125.084 1530.93 135.052C1534.55 145.246 1536.59 156.346 1536.59 168.579C1536.59 180.812 1534.55 192.139 1530.93 202.106C1527.08 212.3 1521.64 220.908 1514.39 227.931C1507.14 235.18 1498.53 240.843 1488.57 244.468C1478.37 248.093 1467.04 249.905 1454.81 249.905ZM1428.76 112.172V224.986H1454.81C1471.12 224.986 1484.26 220.002 1493.78 209.808C1503.29 199.841 1508.05 186.022 1508.05 168.579C1508.05 151.136 1503.29 137.317 1493.78 127.35C1484.26 117.382 1471.12 112.172 1454.59 112.172H1428.76Z" fill="#0C0C0C"/>
<path d="M1297.17 87.2529H1324.36V249.905H1297.17V87.2529Z" fill="#0C0C0C"/>
<path d="M1244.04 238.578C1240.19 242.882 1235.2 246.281 1229.09 248.546C1222.97 250.811 1216.17 251.944 1208.7 251.944C1196.92 251.944 1187.4 248.772 1179.93 242.203C1172.23 235.633 1168.6 227.252 1168.6 216.831C1168.6 207.09 1171.77 199.161 1178.34 193.045C1184.69 186.928 1194.88 182.398 1208.47 179.453L1241.32 172.657V170.618C1241.32 164.728 1239.51 160.197 1236.11 157.026C1232.71 153.854 1227.73 152.269 1220.93 152.269C1214.59 152.269 1209.6 153.854 1205.98 156.573C1202.36 159.291 1199.64 163.822 1198.05 169.712L1172.45 163.822C1175.62 153.175 1181.51 144.566 1190.35 138.223C1199.18 131.88 1209.83 128.709 1222.06 128.709C1236.79 128.709 1248.12 132.334 1256.04 139.356C1263.75 146.379 1267.82 156.573 1267.82 169.712V220.909C1267.82 224.307 1268.5 226.572 1270.09 227.705C1271.67 229.064 1274.39 229.29 1278.24 228.837V249.905C1268.5 251.038 1260.8 250.585 1255.36 248.772C1249.93 246.96 1246.08 243.562 1244.04 238.578ZM1212.78 230.197C1220.93 230.197 1227.73 228.158 1233.16 224.08C1238.6 220.002 1241.32 214.792 1241.32 207.996V193.498L1215.72 198.935C1208.25 200.747 1203.03 202.786 1200.09 205.278C1196.92 207.996 1195.56 211.394 1195.56 215.698C1195.56 220.229 1196.92 223.854 1200.09 226.345C1203.26 229.064 1207.34 230.197 1212.78 230.197Z" fill="#0C0C0C"/>
<path d="M1141.73 233.368C1136.97 239.711 1131.31 244.468 1124.51 247.64C1117.72 250.811 1110.47 252.397 1102.54 252.397C1095.29 252.397 1088.95 251.264 1083.06 248.546C1077.17 246.054 1072.41 242.429 1068.33 237.445V249.905H1041.15V87.2529H1068.33V143.66C1072.41 138.903 1077.17 135.278 1083.06 132.56C1088.95 130.068 1095.29 128.709 1102.54 128.709C1110.47 128.709 1117.72 130.521 1124.51 133.693C1131.31 136.864 1136.97 141.621 1141.73 147.738C1145.81 153.401 1149.2 159.971 1151.47 167.22C1153.73 174.469 1154.87 182.398 1154.87 190.553C1154.87 198.935 1153.73 206.863 1151.47 214.112C1149.2 221.361 1145.81 227.931 1141.73 233.368ZM1097.1 152.495C1088.04 152.495 1081.02 155.666 1075.58 162.009C1070.14 168.352 1067.65 176.734 1067.65 187.155V194.177C1067.65 204.598 1070.37 212.98 1075.81 219.323C1081.24 225.666 1088.27 228.611 1097.1 228.611C1106.62 228.611 1113.86 225.213 1119.3 218.417C1124.74 211.621 1127.46 202.333 1127.46 190.553C1127.46 178.773 1124.74 169.485 1119.3 162.689C1113.86 155.893 1106.62 152.495 1097.1 152.495Z" fill="#0C0C0C"/>
<path d="M1008.41 146.832C1013.39 152.269 1017.02 158.838 1019.74 166.314C1022.23 173.789 1023.59 181.945 1023.59 190.553C1023.59 199.388 1022.23 207.543 1019.74 215.019C1017.02 222.494 1013.39 228.837 1008.41 234.274C1002.97 240.164 996.856 244.695 989.607 247.866C982.358 251.038 974.656 252.397 966.274 252.397C957.666 252.397 949.964 251.038 942.715 247.866C935.465 244.695 929.349 240.164 924.139 234.274C919.155 228.837 915.304 222.494 912.812 215.019C910.094 207.543 908.961 199.388 908.961 190.553C908.961 181.945 910.094 173.789 912.812 166.314C915.304 158.838 919.155 152.269 924.139 146.832C929.349 140.942 935.465 136.638 942.715 133.466C949.964 130.295 957.666 128.709 966.274 128.709C974.656 128.709 982.358 130.295 989.607 133.466C996.856 136.638 1002.97 140.942 1008.41 146.832ZM966.274 151.589C956.986 151.589 949.737 155.214 944.3 162.01C938.864 169.032 936.372 178.547 936.372 190.553C936.372 202.786 938.864 212.3 944.3 219.096C949.737 226.119 956.986 229.517 966.274 229.517C975.336 229.517 982.585 226.119 988.022 219.096C993.458 212.3 996.177 202.786 996.177 190.553C996.177 178.547 993.458 169.032 988.022 162.01C982.585 155.214 975.336 151.589 966.274 151.589Z" fill="#0C0C0C"/>
<path d="M862.954 87.2529H890.138V249.905H862.954V87.2529Z" fill="#0C0C0C"/>
<path d="M838.595 249.905H812.09V233.141C808.466 239.031 802.802 243.788 795.1 247.186C787.171 250.811 778.336 252.396 768.369 252.396C757.495 252.396 747.301 250.358 738.013 245.827C728.725 241.523 720.797 235.18 714.001 227.025C707.658 219.775 702.9 211.167 699.729 201.2C696.557 191.232 694.972 180.585 694.972 169.258C694.972 157.931 696.557 147.058 699.955 136.864C703.353 126.896 708.337 117.835 714.68 110.133C721.476 101.977 729.858 95.8609 739.372 91.3302C748.887 87.0261 759.081 84.7607 770.181 84.7607C786.039 84.7607 799.857 88.8384 811.184 96.9936C822.511 105.149 830.666 116.476 835.876 131.427L808.239 140.715C805.747 131.2 801.216 123.725 794.647 118.288C788.077 113.078 779.922 110.359 770.408 110.359C756.589 110.359 745.489 115.796 736.881 126.67C728.272 137.543 723.968 151.588 723.968 168.805C723.968 186.475 728.272 200.52 736.881 211.394C745.489 222.267 756.816 227.478 770.861 227.478C782.188 227.478 791.702 223.853 798.951 216.604C806.2 209.355 810.278 199.614 810.731 187.608H767.916V162.236H838.595V249.905Z" fill="#0C0C0C"/>
</svg>
